X:1
T:Title
%%score 1 2
L:1/8
Q:1/4=110
M:4/4
K:Gb
V:1 treble nm="Strings 1, Soprano"
V:2 bass nm="Strings 1, Bass"
V:1
 [Gd]2 [GB]>[GA] [GB]2 [DG]>[DA] | [DG]4 D3 D | [DG]2 [DG]>[DG] [FA]2 G>[FA] | [GB]6 z2 | %4
w: 1.~Are~ you~ a dorn ing~ the~|doc trine�~ The~|glo ri ous~ doc trine~ of~|God?~|
 [Gd]2 [GB]>[GA] [GB]2 [DG]>[DA] | [DG]4 D4 | [DG]2 [DG]>[FA] [GB]2 [DA]>[DA] | [DG]6 z2 | %8
w: Walk ing~ so~ ho ly~ be|fore~ Him,~|Fol low ing~ where~ He~ hath~|trod?~|
 [EG]2 [EG]>[EG] [Ec]2 [Ge]>[Ge] | [Gd]4 [GB]4 | [GB]2 [GB]>[GB] [GB]2 [G=c]>[Gc] | [Fd]6 z2 | %12
w: So~ when~ the~ world~ looks~ up|on~ you,~|Noth ing~ but~ Christ~ is~ in~|view?~|
 [Gd]2 [GB]>[GA] [GB]2 [DG]>[DA] | [DG]4 D4 | %14
w: So~ when~ the~ world~ looks~ up|on~ you,~|
 [DG]2 [DG]>[EA] [DB]2 [DA]>[Q:1/4=84][DA][Q:1/4=108][Q:1/4=107][Q:1/4=105][Q:1/4=103][Q:1/4=102][Q:1/4=100][Q:1/4=99][Q:1/4=97][Q:1/4=95][Q:1/4=94][Q:1/4=92][Q:1/4=90][Q:1/4=89][Q:1/4=87][Q:1/4=85] | %15
w: Noth ing~ but~ Christ~ is~ in~|
 [DG]6 z2[Q:1/4=82] |] %16
w: view?~|
V:2
 [G,B,]2 [G,D]>[G,C] [G,D]2 [G,B,]>[G,C] | [G,B,]4 [G,B,]3 [G,B,] | %2
 [G,B,]2 [G,B,]>[G,B,] [D,D]2 [B,,D]>[D,D] | [G,D]6 z2 | [G,B,]2 [G,D]>[G,C] [G,D]2 [G,B,]>[G,C] | %5
 [G,B,]4 [G,B,]4 | [D,B,]2 [D,B,]>[D,C] [D,D]2 [D,C]>[D,C] | [G,B,]6 z2 | %8
 [C,C]2 [C,C]>[C,C] [C,G,]2 [C,C]>[C,C] | [G,B,]4 [G,D]4 | [G,D]2 [G,D]>[G,D] [E,E]2 A,>A, | %11
 [D,A,]6 z2 | [G,B,]2 [G,D]>[G,C] [G,D]2 [G,B,]>[G,C] | [G,B,]4 [G,B,]4 | %14
 [B,,G,]2 [B,,G,]>[C,G,] [D,G,]2 [D,C]>[D,C] | [G,,G,B,]6 z2 |] %16

